X: 1
T: Merry Lasses, The
M: 6/8
L: 1/8
R: jig
K: Dmaj
|:FDF d2f|ecA d2B|AFd AFD|GEE E2G|
FDF AFA|BGB cAc|dcB AFd|AFD D3:|
|:fed cac|BgB AfA|GeG FdF|GEE Eef|
afa geg|fdf ecA|Bcd efg|fdd d3:|
